!!!OTL@@DE: Liebes-A-B-C
!!!ODT: 1838
!!!OMD: L&auml;ndlerbewegung
!!!ONB: S&uuml;ddeutsches Volkslied
!!!OCL: Erk, Ludwig
!!!GCO: Deutscher Liederschatz, Band 1
**kern	**kern	**kern
*staff3	*staff2	*staff1
*Ipiano	*Ipiano	*Ivox
=1-	=1-	=1-
*clefF4	*clefG2	*clefG2
*k[f#]	*k[f#]	*k[f#]
*G:	*G:	*G:
*M3/4	*M3/4	*M3/4
*MM132	*MM132	*MM132
4.B\ 4.d\	4.b\ 4.dd\	4.dd\
8B\ 8d\	8b\ 8dd\	8dd\
4G\ 4B\	4g/ 4b/	4b\
=2	=2	=2
4.E\ 4.G\	4.e/ 4.g/	4.g/
8E\ 8G\	8e/ 8g/	8g/
4C\ 4E\	4c/ 4e/	4e/
=3	=3	=3
4.D\ 4.F#\	4.c/ 4.a/	4.a/
8D\ 8F#\	8c/ 8a/	8a/
4D\ 4F#\	4c/ 4d/	4d/
=4	=4	=4
4D\	(8d/L	2.r
.	8f#/J)	.
4F#\	(8f#/L	.
.	8a/J)	.
4A\	(8a\L	.
.	8cc\J)	.
=5	=5	=5
4.c\ 4.e\	4.cc\ 4.ee\	4.ee\
8c\ 8e\	8cc\ 8ee\	8ee\
4B\ 4d\	4b\ 4dd\	4dd\
=6	=6	=6
4.A\ 4.c\	4.a\ 4.cc\	4.cc\
8A\ 8c\	8a\ 8cc\	8cc\
4F#\ 4A\	4f#/ 4a/	4a/
=7	=7	=7
4GG/	4b\ 4dd\	2dd\
4BB/	(8G/L	.
.	8B/J)	.
4D\	(8B/L	4r
.	8d/J)	.
=8	=8	=8
4G\	(8B/L	2.r
.	8d/J)	.
4B\	(8d/L	.
.	8g/J)	.
4d\	(8g/L	.
.	8b/J)	.
=9	=9	=9
4.B\ 4.d\	4.b\ 4.dd\	4.dd\
8B\ 8d\	8b\ 8dd\	8dd\
4G\ 4B\	4g/ 4b/	4b\
=10	=10	=10
4.E\ 4.G\	4.e/ 4.g/	4.g/
8E\ 8G\	8e/ 8g/	8g/
4C\ 4E\	4c/ 4e/	4e/
=11	=11	=11
4.D\ 4.F#\	4.c/ 4.d/ 4.a/	4.a/
8D\ 8F#\	8c/ 8d/ 8a/	8a/
4D\ 4F#\	4c/ 4d/	4d/
=12	=12	=12
4D\	(8d/L	2.r
.	8f#/J)	.
4F#\	(8f#/L	.
.	8a/J)	.
4A\	(8a\L	.
.	8cc\J)	.
=13	=13	=13
4.c\ 4.e\	4.cc\ 4.ee\	4.ee\
8c\ 8e\	8cc\ 8ee\	8ee\
4B\ 4d\	4b\ 4dd\	4dd\
=14	=14	=14
4.A\ 4.c\	4.a\ 4.cc\	4.cc\
8A\ 8c\	8a\ 8cc\	8cc\
4D\ 4A\	4c/ 4d/ 4f#/	4f#/
=15	=15	=15
4GG/	4B/ 4d/ 4g/	2g/
4BB/	(8G/L	.
.	8B/J)	.
4D\	(8B/L	4r
.	8d/J)	.
=16	=16	=16
4G\	(8B/L	2.r
.	8d/J)	.
4B\	(8d/L	.
.	8g/J)	.
4d\	(8g/L	.
.	8a/J)	.
=17	=17	=17
4GG/	8g\ (8b\L	8b\L
.	8dd\J)	8dd\J
4D\ 4G\ 4B\	4.b\ 4.dd\	4.dd\
4D\ 4G\ 4B\	.	.
.	8g/ 8b/	8b\
=18	=18	=18
4GG/	(8d/ 8g/L	8g/L
.	8b/J)	8b/J
4D\ 4G\ 4B\	4.d/ 4.b/	4.b\
4D\ 4G\ 4B\	.	.
.	8g/	8g/
=19	=19	=19
4DD/	(8d/ 8f#/L	8f#/L
.	8a/J)	8a/J
4D\ 4F#\ 4A\	8a\L	2a/
.	(8ccc\	.
4D\ 4F#\ 4A\	8aa\	.
.	8ff#\J	.
=20	=20	=20
4DD/	8dd/L	2.r
.	8cc/	.
4D\ 4F#\ 4A\	8a/	.
.	8f#/	.
4D\ 4F#\ 4A\	8a/	.
.	8b/J)	.
=21	=21	=21
4DD/	8a\ (8cc\L	8cc\L
.	8ee\J)	8ee\J
4D\ 4F#\ 4A\	4.cc\ 4.ee\	4.ee\
4D\ 4F#\ 4A\	.	.
.	8b\ 8dd\	8dd\
=22	=22	=22
4DD/	8b\ (8dd\L	8dd\L
.	8a\ 8cc\J)	8cc\J
4D\ 4F#\ 4A\	4.a\ 4.cc\	4.cc\
4D\ 4F#\ 4A\	.	.
.	8f#/ 8a/	8a/
=23	=23	=23
4GG/	8b\ 8dd\L	2dd\
.	(8ddd\	.
4D\ 4G\ 4B\	8bb\	.
.	8gg\	.
4D\ 4G\ 4B\	8dd\	4r
.	8b\J	.
=24	=24	=24
4GG/	8g/L	2.r
.	8d/	.
4D\ 4G\	8B/	.
.	8d/	.
4D\ 4G\ 4B\	8g/	.
.	8a/J)	.
=25	=25	=25
4GG/	8g\ (8b\L	8b\L
.	8dd\J)	8dd\J
4D\ 4G\ 4B\	4.b\ 4.dd\	4.dd\
4D\ 4G\ 4B\	.	.
.	8g/ 8b/	8b\
=26	=26	=26
4GG/	(8d/ 8g/L	8g/L
.	8b/J)	8b/J
4D\ 4G\ 4B\	4.d/ 4.b/	4.b\
4D\ 4G\ 4B\	.	.
.	8g/	8g/
=27	=27	=27
4DD/	(8d/ 8f#/L	8f#/L
.	8a/J)	8a/J
4D\ 4F#\ 4A\	8a\L	2a/
.	(8ccc\	.
4D\ 4F#\ 4A\	8aa\	.
.	8ff#\J	.
=28	=28	=28
4DD/	8dd/L	2.r
.	8cc/	.
4D\ 4F#\ 4A\	8a/	.
.	8f#/	.
4D\ 4F#\ 4A\	8a/	.
.	8b/J)	.
=29	=29	=29
4DD/	8a\ (8cc\L	8cc\L
.	8ee\J)	8ee\J
4D\ 4F#\ 4A\	4.cc\ 4.ee\	4.ee\
4D\ 4F#\ 4A\	.	.
.	8b\ 8dd\	8dd\
=30	=30	=30
4DD/	8b\ (8dd\L	8dd\L
.	8a\ 8cc\J)	8cc\J
4D\ 4F#\ 4A\	4.a\ 4.cc\	4.cc\
4D\ 4A\ 4c\	.	.
.	8f#/	8f#/
=31	=31	=31
4G\ 4B\	4g/	4g/
4GG/	4r	4r
4r	8dd\ (8bb\L	8bb\L
.	8cc\ 8aa\J)	8aa\J
=32	=32	=32
*^	*	*
4r	2.G\	4b\ 4gg\	4gg\
4B/ 4d/	.	4g/ 4b/	4b\
4B/ 4d/	.	4g/ 4b/	4b\
=33	=33	=33	=33
4r	2.G\	4b\ 4gg\	4gg\
4B/ 4d/	.	4g/ 4b/	4b\
4B/ 4d/	.	4g/ 4b/	4b\
=34	=34	=34	=34
4r	2.D\	4a\ 4cc\	4cc\
4F#/ 4A/ 4d/	.	4.cc\ 4.aa\	4.aa\
4F#/ 4A/ 4d/	.	.	.
.	.	8b\ 8gg\	8gg\
=35	=35	=35	=35
4r	2.D\	4a\ 4ff#\	4ff#\
4F#/ 4A/ 4d/	.	4f#/ 4a/	4a/
4F#/ 4A/ 4d/	.	4f#/ 4a/	4a/
=36	=36	=36	=36
4r	2.D\	4a\ 4ff#\	4ff#\
4F#/ 4A/ 4d/	.	4f#/ 4a/	4a/
4F#/ 4A/ 4d/	.	4f#/ 4a/	4a/
=37	=37	=37	=37
4r	2.G\	4g/ 4b/	4b\
4B/ 4d/	.	4.dd\ 4.bb\	4.bb\
4B/ 4d/	.	.	.
.	.	8cc\ 8aa\	8aa\
=38	=38	=38	=38
4r	2.G\	4b\ 4gg\	4gg\
4B/ 4d/	.	4g/ 4b/	4b\
4B/ 4d/	.	4g/ 4b/	4b\
=39	=39	=39	=39
4r	2.G\	4b\ 4gg\	4gg\
4B/ 4d/	.	4g/ 4b/	4b\
4B/ 4d/	.	4g/ 4b/	4b\
=40	=40	=40	=40
4r	2.D\	4a\ 4cc\	4cc\
4F#/ 4A/ 4d/	.	4.cc\ 4.aa\	4.aa\
4F#/ 4A/ 4d/	.	.	.
.	.	8b\ 8gg\	8gg\
=41	=41	=41	=41
4r	2.D\	4a\ 4ff#\	4ff#\
4F#/ 4A/ 4d/	.	4f#/ 4a/	4a/
4F#/ 4A/ 4d/	.	4f#/ 4a/	4a/
=42	=42	=42	=42
4r	2.D\	4ccc\	4ccc\
4A/ 4d/	.	4.cc\ 4.ff#\	4.ff#\
4A/ 4d/	.	.	.
.	.	8cc\ 8ff#\	8ff#\
*v	*v	*	*
=43	=43	=43
2G\ 2d\	2b\ 2gg\	2gg\
4D\ 4d\	4a\ 4cc\ 4dd\ 4ff#\	4r
=44	=44	=44
2GG/ 2G/	2b\ 2dd\ 2gg\	2.r
4r	4r	.
==	==	==
*-	*-	*-
!!!ENC: Craig Stuart Sapp
!!!END: 2004/06/02/
!!!EFL: 129/651
